shader_type spatial;
render_mode unshaded, fog_disabled;

global uniform vec2 resolution;
global uniform float color_depth;
uniform sampler2D screen_texture: hint_screen_texture, filter_nearest;
uniform float dither_amount: hint_range(0.0, 1.0, 0.01) = 0.5;
void vertex() {
	// Called for every vertex the material is visible on.
	POSITION = vec4(VERTEX.xy, 1.0, 1.0);
}

const mat4 bayer_matrix = (1.0 / 16.0) * mat4(
 vec4(0.0, 8.0, 2.0, 10.0),
 vec4(12.0, 4.0, 14.0, 6.0),
 vec4(3.0, 11.0, 1.0, 9.0),
 vec4(15.0, 7.0, 13.0, 9.0)
) - 0.5;

void fragment() {
	// Called for every pixel the material is visible on.
	vec2 uv = floor(SCREEN_UV * resolution) / resolution;
	vec3 color = texture(screen_texture, uv).rgb;
	ALBEDO = color;
}

//void light() {
//	// Called for every pixel for every light affecting the material.
//	// Uncomment to replace the default light processing function with this one.
//}
